www/assets/icons/timer_3.svg

<svg width="24" height="24" viewBox="0 0 24 24" xmlns="http://www.w3.org/2000/svg" fill='currentColor'><path d="M10.96 12.9802C10.8 12.7402 10.6 12.5202 10.34 12.3302C10.09 12.1402 9.77998 11.9802 9.40998 11.8502C9.70998 11.7102 9.97998 11.5502 10.21 11.3502C10.44 11.1502 10.63 10.9402 10.78 10.7102C10.93 10.4802 11.05 10.2502 11.12 10.0002C11.2 9.76016 11.23 9.51016 11.23 9.27016C11.23 8.72016 11.14 8.23016 10.95 7.81016C10.77 7.39016 10.51 7.04016 10.17 6.75016C9.83998 6.47016 9.43998 6.25016 8.96998 6.11016C8.51998 5.98016 7.99998 5.91016 7.43998 5.91016C6.88998 5.91016 6.37998 5.99016 5.91998 6.15016C5.44998 6.32016 5.04998 6.55016 4.71998 6.84016C4.38998 7.13016 4.11998 7.47016 3.93998 7.87016C3.73998 8.26016 3.64998 8.70016 3.64998 9.16016H5.62998C5.62998 8.90016 5.67998 8.67016 5.76998 8.47016C5.85998 8.27016 5.98998 8.09016 6.14998 7.95016C6.31998 7.81016 6.50998 7.70016 6.72998 7.62016C6.94998 7.54016 7.18998 7.50016 7.45998 7.50016C8.06998 7.50016 8.51998 7.66016 8.81998 7.97016C9.11998 8.28016 9.25998 8.72016 9.25998 9.29016C9.25998 9.56016 9.21998 9.81016 9.13998 10.0302C9.05998 10.2502 8.92998 10.4402 8.75998 10.6002C8.58998 10.7602 8.37998 10.8802 8.12998 10.9702C7.87998 11.0602 7.57998 11.1002 7.23998 11.1002H6.06998V12.6702H7.24998C7.58998 12.6702 7.88998 12.7102 8.15998 12.7802C8.42998 12.8602 8.65998 12.9702 8.84998 13.1302C9.03998 13.2902 9.18998 13.4902 9.28998 13.7402C9.38998 13.9802 9.44998 14.2802 9.44998 14.6102C9.44998 15.2302 9.26998 15.7002 8.91998 16.0302C8.56998 16.3602 8.07998 16.5202 7.46998 16.5202C7.17998 16.5202 6.90998 16.4802 6.66998 16.3902C6.42998 16.3102 6.22998 16.1902 6.05998 16.0302C5.88998 15.8702 5.75998 15.6902 5.66998 15.4702C5.57998 15.2502 5.52998 15.0102 5.52998 14.7502H3.53998C3.53998 15.3002 3.64998 15.7802 3.85998 16.2002C4.06998 16.6202 4.35998 16.9702 4.71998 17.2502C5.07998 17.5302 5.48998 17.7402 5.95998 17.8802C6.42998 18.0202 6.91998 18.0902 7.43998 18.0902C8.00998 18.0902 8.52998 18.0102 9.01998 17.8602C9.50998 17.7102 9.92998 17.4802 10.28 17.1802C10.64 16.8802 10.92 16.5202 11.12 16.0802C11.32 15.6502 11.42 15.1502 11.42 14.6002C11.42 14.3102 11.38 14.0202 11.31 13.7402C11.23 13.4902 11.12 13.2302 10.96 12.9802ZM20.22 14.3802C20.08 14.1002 19.87 13.8502 19.59 13.6402C19.31 13.4302 18.98 13.2502 18.58 13.1102C18.18 12.9702 17.73 12.8402 17.23 12.7302C16.88 12.6602 16.59 12.5802 16.36 12.5002C16.13 12.4202 15.95 12.3402 15.81 12.2502C15.67 12.1602 15.58 12.0602 15.53 11.9502C15.48 11.8402 15.45 11.7102 15.45 11.5602C15.45 11.4102 15.48 11.2802 15.54 11.1502C15.6 11.0202 15.69 10.9002 15.81 10.8102C15.93 10.7102 16.08 10.6302 16.26 10.5702C16.44 10.5102 16.66 10.4802 16.9 10.4802C17.15 10.4802 17.37 10.5202 17.56 10.5902C17.75 10.6602 17.91 10.7602 18.04 10.8802C18.17 11.0002 18.26 11.1402 18.33 11.3002C18.39 11.4602 18.43 11.6202 18.43 11.7902H20.38C20.38 11.4002 20.3 11.0402 20.14 10.7002C19.98 10.3602 19.75 10.0702 19.45 9.82016C19.15 9.57016 18.79 9.38016 18.36 9.23016C17.93 9.08016 17.44 9.01016 16.9 9.01016C16.39 9.01016 15.92 9.08016 15.51 9.22016C15.1 9.36016 14.74 9.55016 14.45 9.79016C14.16 10.0302 13.94 10.3102 13.78 10.6302C13.62 10.9502 13.55 11.2802 13.55 11.6402C13.55 12.0002 13.63 12.3202 13.78 12.6002C13.93 12.8802 14.15 13.1202 14.42 13.3302C14.69 13.5402 15.02 13.7102 15.4 13.8602C15.78 14.0002 16.21 14.1202 16.67 14.2202C17.06 14.3002 17.38 14.3902 17.62 14.4802C17.86 14.5702 18.05 14.6702 18.19 14.7702C18.32 14.8702 18.41 14.9902 18.46 15.1102C18.51 15.2302 18.53 15.3602 18.53 15.5002C18.53 15.8202 18.4 16.0702 18.13 16.2702C17.86 16.4702 17.47 16.5602 16.96 16.5602C16.74 16.5602 16.53 16.5402 16.32 16.4802C16.11 16.4302 15.92 16.3502 15.76 16.2402C15.59 16.1302 15.46 15.9802 15.35 15.8002C15.24 15.6202 15.18 15.3902 15.17 15.1302H13.28C13.28 15.4902 13.36 15.8402 13.52 16.1802C13.68 16.5202 13.91 16.8302 14.22 17.1102C14.53 17.3802 14.91 17.6002 15.37 17.7702C15.83 17.9402 16.35 18.0202 16.95 18.0202C17.48 18.0202 17.96 17.9602 18.39 17.8302C18.82 17.7002 19.19 17.5202 19.5 17.2902C19.81 17.0602 20.04 16.7802 20.21 16.4602C20.38 16.1402 20.46 15.7902 20.46 15.4002C20.44 15.0002 20.37 14.6602 20.22 14.3802Z"/></svg>

<svg xmlns="http://www.w3.org/2000/svg" width="24" height="24" viewBox="0 0 24 24" fill='currentColor'><path d="M10.96 12.98c-.16-.24-.36-.46-.62-.65a3.4 3.4 0 0 0-.93-.48c.3-.14.57-.3.8-.5s.42-.41.57-.64.27-.46.34-.71c.08-.24.11-.49.11-.73 0-.55-.09-1.04-.28-1.46-.18-.42-.44-.77-.78-1.06-.33-.28-.73-.5-1.2-.64-.45-.13-.97-.2-1.53-.2-.55 0-1.06.08-1.52.24q-.705.255-1.2.69c-.33.29-.6.63-.78 1.03-.2.39-.29.83-.29 1.29h1.98c0-.26.05-.49.14-.69s.22-.38.38-.52c.17-.14.36-.25.58-.33s.46-.12.73-.12c.61 0 1.06.16 1.36.47s.44.75.44 1.32c0 .27-.04.52-.12.74s-.21.41-.38.57-.38.28-.63.37-.55.13-.89.13H6.07v1.57h1.18c.34 0 .64.04.91.11.27.08.5.19.69.35s.34.36.44.61c.1.24.16.54.16.87 0 .62-.18 1.09-.53 1.42s-.84.49-1.45.49c-.29 0-.56-.04-.8-.13-.24-.08-.44-.2-.61-.36s-.3-.34-.39-.56-.14-.46-.14-.72H3.54c0 .55.11 1.03.32 1.45s.5.77.86 1.05.77.49 1.24.63.96.21 1.48.21c.57 0 1.09-.08 1.58-.23s.91-.38 1.26-.68c.36-.3.64-.66.84-1.1.2-.43.3-.93.3-1.48 0-.29-.04-.58-.11-.86-.08-.25-.19-.51-.35-.76m9.26 1.4c-.14-.28-.35-.53-.63-.74s-.61-.39-1.01-.53-.85-.27-1.35-.38a7 7 0 0 1-.87-.23 2.6 2.6 0 0 1-.55-.25.7.7 0 0 1-.28-.3.9.9 0 0 1-.08-.39.95.95 0 0 1 .36-.75q.18-.15.45-.24c.18-.06.4-.09.64-.09.25 0 .47.04.66.11s.35.17.48.29.22.26.29.42c.06.16.1.32.1.49h1.95a2.52 2.52 0 0 0-.93-1.97c-.3-.25-.66-.44-1.09-.59s-.92-.22-1.46-.22c-.51 0-.98.07-1.39.21s-.77.33-1.06.57-.51.52-.67.84a2.2 2.2 0 0 0-.23 1.01c0 .36.08.68.23.96s.37.52.64.73.6.38.98.53c.38.14.81.26 1.27.36.39.08.71.17.95.26s.43.19.57.29c.13.1.22.22.27.34s.07.25.07.39c0 .32-.13.57-.4.77s-.66.29-1.17.29c-.22 0-.43-.02-.64-.08-.21-.05-.4-.13-.56-.24a1.33 1.33 0 0 1-.59-1.11h-1.89q0 .54.24 1.05c.16.34.39.65.7.93.31.27.69.49 1.15.66s.98.25 1.58.25c.53 0 1.01-.06 1.44-.19q.645-.195 1.11-.54c.31-.23.54-.51.71-.83s.25-.67.25-1.06c-.02-.4-.09-.74-.24-1.02"/></svg>
